X:089 
T:Jackson's Jig   
T:Tempest, Humors of Kesh
B:CRE3.017 (Port Mhic Eoin)
F:file ID: cre.3/089jacks_J
R:jig
Q:160
M:6/8
L:1/8
K:G
d/c/|:BGG Bcd|ecc efg|dcB gdB|BAG ABc|
BGG Bcd|ecc efg|dcB gdB|1 cAF G2A:|\
[2 cAF GBd||
|:g3 bag|fed cde|dcB gdB|BAG ABd|
g3 bag|fed cde|dcB gdB|1 cAF GBd:|\
[2 cAF G3 |]

%%%

